X:1
T:Get Ready to Welcome the King!
T:Ernest Orlando Sellers (1869-1952)
T:Get Ready to Welcome the King!
T:Public Domain
T:Public Domain
C:Ernest Orlando Sellers (1869-1952)
Z:Public Domain
%%score ( 1 2 ) ( 3 4 )
L:1/8
M:4/4
K:Db
V:1 treble 
V:2 treble 
V:3 bass 
V:4 bass 
V:1
 [FA]2 | [Fd]2 [Fd][Fd] [Gd]2 [Gc][GB] | [FA]6 [FA]2 | [GB]2 [GB]2 [=GB] [Ge]2 [Gd] | [Ac]6 [GA]2 | %5
w: 1.~A|ser- vant of Je- sus am|I, To|you this mess- age I|bring: The|
w: 2.~Dark|e- vil has long held its|sway; Its|end is com- ing and|near, For|
w: 3.~All|pow- er to Je- sus is|giv’n, As-|cend- ed to Heav’n a-|gain; He|
w: 4.~Then|lift up your heads, O ye|saints, Your|grea re- demp- tion be-|hold; The|
 [Fd]2 [Gd][Gd] [Fd]2 [FA]2 | [GB]2 [GB][GB] [Gd]3 [=Ed] | [Fd] [FA]2 [Fd] [Gc] [Ge]2 [GA] | %8
w: night is far spent, the|day dawns at length; Get|rea- dy to wel- come the|
w: Je- sus, God’s Son, shall|come to His throne, The|Sav- ior to sin- ners so|
w: hum- bled Him- self to|die on the cross, But|soon He is com- ing to|
w: night is far spent, the|day is at hand, The|day by the pro- phets fore-|
 [Fd]6 ||"^Refrain" [Fd]2 | [Gc] [Ge]2 [Ge] [Ge] [Ad]2 [AB] | (FF G2 F2) [Fd]2 | %12
w: King!||||
w: dear.|Get|rea- dy to wel- come the|King, * * * Get|
w: reign.||||
w: told!||||
 [=Gd] [GB]2 [GB] [GB] [Ge]2 [Gf] | [Ae]6 [GA]2 | [Fd]2 [Gd][Gd] [Fd]2 [FA]2 | %15
w: |||
w: dy to wel- come the King;|The night|is far spent, the day|
w: |||
w: |||
 [GB]2 [GB][GB] [Gd]2 [=Ed]2 | [Fd] [FA]2 [Fd] [Gc] [Ge]2 [GA] | [Fd]6 |] %18
w: |||
w: dawns at length, Get rea-|dy to wel- come the King!||
w: |||
w: |||
V:2
 x2 | x8 | x8 | x8 | x8 | x8 | x8 | x8 | x6 || x2 | x8 | d6 x2 | x8 | x8 | x8 | x8 | x8 | x6 |] %18
w: ||||||||||||||||||
w: |||||||||||rea-|||||||
V:3
 [D,D]2 | [D,A,]2 [D,A,][D,A,] [D,B,]2 [D,C][D,D] | [D,D]6 [D,D]2 | %3
w: ~|~ ~ ~ ~ ~ ~|~ ~|
 [G,D]2 [G,D]2 [E,D] [E,B,]2 [E,E] | [A,E]6 [A,C]2 | [D,D]2 [D,B,][D,B,] [D,A,]2 [D,D]2 | %6
w: ~ ~ ~ ~ ~|~ ~|~ ~ ~ ~ ~|
 [G,D]2 [G,D][G,D] [G,B,]3 [=G,B,] | A, [A,D]2 [A,D] [A,E] [A,C]2 A, | [D,A,]6 || [D,A,]2 | %10
w: ~ ~ ~ ~ ~|~ ~ ~ ~ ~ ~|~|~|
 A, [A,C]2 [A,C] [A,C] [A,E]2 [A,C] | DD B,2 A,2 [D,A,]2 | [E,E] [E,E]2 [E,D] [E,D] [E,B,]2 [E,D] | %13
w: ~ ~ ~ to wel- come|King, * * * *||
 [A,C]6 [A,C]2 | [D,D]2 [D,B,][D,B,] [D,A,]2 [D,D]2 | [G,D]2 [G,D][G,D] [G,B,]2 [=G,B,]2 | %16
w: |||
 A, [A,D]2 [A,D] [A,E] [A,C]2 A, | [D,A,]6 |] %18
w: ||
V:4
 x2 | x8 | x8 | x8 | x8 | x8 | x8 | A, x5 A, x | x6 || x2 | A, x7 | D,6 x2 | x8 | x8 | x8 | x8 | %16
w: |||||||~ ~|||the||||||
 A, x5 A, x | x6 |] %18
w: ||

